svg/printer_3d_nozzle_alert.svg

<svg xmlns="http://www.w3.org/2000/svg" viewBox="0 0 24 24"><path d="M7 2h10v6h2v5h-2.5L13 17h-2l-3.5-4H5V8h2zm3 20H2v-2h8c.6 0 1-.5 1-1v-1h2v1c0 1.7-1.3 3-3 3m11-9V7h2v6zm0 4v-2h2v2z"/></svg>

<?xml version="1.0" encoding="UTF-8"?><!DOCTYPE svg PUBLIC "-//W3C//DTD SVG 1.1//EN" "http://www.w3.org/Graphics/SVG/1.1/DTD/svg11.dtd"><svg xmlns="http://www.w3.org/2000/svg" xmlns:xlink="http://www.w3.org/1999/xlink" version="1.1" id="mdi-printer-3d-nozzle-alert" width="24" height="24" viewBox="0 0 24 24"><path d="M7 2H17V8H19V13H16.5L13 17H11L7.5 13H5V8H7V2M10 22H2V20H10C10.6 20 11 19.5 11 19V18H13V19C13 20.7 11.7 22 10 22M21 13V7H23V13H21M21 17V15H23V17H21Z" /></svg>
